src/assets/images/logo.svg

<?xml version="1.0" encoding="UTF-8"?>
<svg xmlns="http://www.w3.org/2000/svg" xmlns:xlink="http://www.w3.org/1999/xlink" width="48pt" height="48pt" viewBox="0 0 48 48" version="1.1">
<defs>
<linearGradient id="linear0" gradientUnits="userSpaceOnUse" x1="39.026081" y1="12.39475" x2="46.973919" y2="57.480251" gradientTransform="matrix(0.27907,0,0,0.27907,0,0)">
<stop offset="0" style="stop-color:rgb(67.843139%,24.705882%,8.627451%);stop-opacity:1;"/>
<stop offset="0.492" style="stop-color:rgb(72.156864%,33.333334%,8.235294%);stop-opacity:1;"/>
<stop offset="1" style="stop-color:rgb(76.078433%,40.392157%,8.235294%);stop-opacity:1;"/>
</linearGradient>
<linearGradient id="linear1" gradientUnits="userSpaceOnUse" x1="52.854172" y1="19.2855" x2="52.854172" y2="56.509171" gradientTransform="matrix(0.27907,0,0,0.27907,0,0)">
<stop offset="0" style="stop-color:rgb(100%,84.313726%,27.843139%);stop-opacity:1;"/>
<stop offset="0.482" style="stop-color:rgb(100%,83.92157%,27.058825%);stop-opacity:1;"/>
<stop offset="1" style="stop-color:rgb(96.078432%,73.725492%,0%);stop-opacity:1;"/>
</linearGradient>
<linearGradient id="linear2" gradientUnits="userSpaceOnUse" x1="40.7425" y1="30.082081" x2="40.7425" y2="81.922173" gradientTransform="matrix(0.27907,0,0,0.27907,0,0)">
<stop offset="0" style="stop-color:rgb(99.607843%,81.960785%,0%);stop-opacity:1;"/>
<stop offset="1" style="stop-color:rgb(89.019608%,37.64706%,0.392157%);stop-opacity:1;"/>
</linearGradient>
<linearGradient id="linear3" gradientUnits="userSpaceOnUse" x1="29.627001" y1="62.83733" x2="56.373001" y2="109.162666" gradientTransform="matrix(0.27907,0,0,0.27907,0,0)">
<stop offset="0" style="stop-color:rgb(12.941177%,67.843139%,39.215687%);stop-opacity:1;"/>
<stop offset="1" style="stop-color:rgb(3.137255%,50.980395%,25.882354%);stop-opacity:1;"/>
</linearGradient>
<linearGradient id="linear4" gradientUnits="userSpaceOnUse" x1="24.266331" y1="67.463417" x2="78.980247" y2="122.17733" gradientTransform="matrix(0.27907,0,0,0.27907,0,0)">
<stop offset="0" style="stop-color:rgb(99.607843%,81.960785%,0%);stop-opacity:1;"/>
<stop offset="1" style="stop-color:rgb(89.019608%,37.64706%,0.392157%);stop-opacity:1;"/>
</linearGradient>
<linearGradient id="linear5" gradientUnits="userSpaceOnUse" x1="38.872002" y1="112.756752" x2="47.127998" y2="159.576584" gradientTransform="matrix(0.27907,0,0,0.27907,0,0)">
<stop offset="0" style="stop-color:rgb(18.82353%,47.450981%,83.92157%);stop-opacity:1;"/>
<stop offset="1" style="stop-color:rgb(16.078432%,48.627451%,82.352942%);stop-opacity:1;"/>
</linearGradient>
<radialGradient id="radial0" gradientUnits="userSpaceOnUse" cx="43" cy="136.155914" fx="43" fy="136.155914" r="15.2005" gradientTransform="matrix(0.27907,0,0,0.27907,0,0)">
<stop offset="0.611" style="stop-color:rgb(100%,92.941177%,32.941177%);stop-opacity:1;"/>
<stop offset="0.825" style="stop-color:rgb(100%,82.352942%,17.647059%);stop-opacity:1;"/>
<stop offset="1" style="stop-color:rgb(100%,70.19608%,0%);stop-opacity:1;"/>
</radialGradient>
<linearGradient id="linear6" gradientUnits="userSpaceOnUse" x1="31.536921" y1="124.703583" x2="52.53167" y2="145.698334" gradientTransform="matrix(0.27907,0,0,0.27907,0,0)">
<stop offset="0" style="stop-color:rgb(99.607843%,81.960785%,0%);stop-opacity:1;"/>
<stop offset="1" style="stop-color:rgb(89.019608%,37.64706%,0.392157%);stop-opacity:1;"/>
</linearGradient>
<linearGradient id="linear7" gradientUnits="userSpaceOnUse" x1="114.666672" y1="78.833328" x2="114.666672" y2="93.166672" gradientTransform="matrix(0.27907,0,0,0.27907,0,0)">
<stop offset="0" style="stop-color:rgb(100%,15.294118%,45.09804%);stop-opacity:1;"/>
<stop offset="1" style="stop-color:rgb(16.862746%,11.764706%,43.921569%);stop-opacity:1;"/>
</linearGradient>
<linearGradient id="linear8" gradientUnits="userSpaceOnUse" x1="114.666672" y1="129" x2="114.666672" y2="143.333328" gradientTransform="matrix(0.27907,0,0,0.27907,0,0)">
<stop offset="0" style="stop-color:rgb(100%,15.294118%,45.09804%);stop-opacity:1;"/>
<stop offset="1" style="stop-color:rgb(16.862746%,11.764706%,43.921569%);stop-opacity:1;"/>
</linearGradient>
<linearGradient id="linear9" gradientUnits="userSpaceOnUse" x1="114.666672" y1="28.66667" x2="114.666672" y2="43" gradientTransform="matrix(0.27907,0,0,0.27907,0,0)">
<stop offset="0" style="stop-color:rgb(100%,15.294118%,45.09804%);stop-opacity:1;"/>
<stop offset="1" style="stop-color:rgb(16.862746%,11.764706%,43.921569%);stop-opacity:1;"/>
</linearGradient>
</defs>
<g id="surface14130447">
<path style=" stroke:none;fill-rule:nonzero;fill:url(#linear0);" d="M 8 4 L 16 4 C 17.105469 4 18 4.894531 18 6 L 18 13.5 C 18 14.605469 17.105469 15.5 16 15.5 L 8 15.5 C 6.894531 15.5 6 14.605469 6 13.5 L 6 6 C 6 4.894531 6.894531 4 8 4 Z M 8 4 "/>
<path style=" stroke:none;fill-rule:nonzero;fill:rgb(100%,97.647059%,76.862746%);fill-opacity:1;" d="M 13 7.5 C 13 8.328125 13.671875 9 14.5 9 C 15.328125 9 16 8.328125 16 7.5 C 16 6.671875 15.328125 6 14.5 6 C 13.671875 6 13 6.671875 13 7.5 "/>
<path style=" stroke:none;fill-rule:nonzero;fill:url(#linear1);" d="M 18 13.101562 L 18 14 C 18 14.140625 17.988281 14.269531 17.960938 14.398438 C 17.851562 14.941406 17.519531 15.398438 17.070312 15.671875 C 16.761719 15.878906 16.390625 16 16 16 L 11.5 16 L 11.5 14.390625 L 13.449219 12.550781 L 14.789062 11.269531 C 15.191406 10.898438 15.808594 10.910156 16.191406 11.289062 Z M 18 13.101562 "/>
<path style=" stroke:none;fill-rule:nonzero;fill:url(#linear2);" d="M 16.738281 15.839844 C 16.511719 15.949219 16.261719 16 16 16 L 8 16 C 7.019531 16 6.199219 15.289062 6.03125 14.351562 C 6.011719 14.238281 6 14.121094 6 14 L 6 11.921875 L 8.789062 9.269531 C 9.191406 8.898438 9.808594 8.910156 10.191406 9.289062 Z M 16.738281 15.839844 "/>
<path style=" stroke:none;fill-rule:nonzero;fill:url(#linear3);" d="M 8 18 L 16 18 C 17.105469 18 18 18.894531 18 20 L 18 28 C 18 29.105469 17.105469 30 16 30 L 8 30 C 6.894531 30 6 29.105469 6 28 L 6 20 C 6 18.894531 6.894531 18 8 18 Z M 8 18 "/>
<path style=" stroke:none;fill-rule:nonzero;fill:rgb(100%,100%,100%);fill-opacity:1;" d="M 15.265625 24.199219 C 15.097656 24.101562 14.820312 24.039062 14.496094 24 C 14.820312 23.960938 15.097656 23.898438 15.265625 23.796875 C 15.96875 23.382812 16.207031 22.46875 15.804688 21.75 C 15.398438 21.03125 14.503906 20.785156 13.804688 21.203125 C 13.632812 21.300781 13.441406 21.519531 13.246094 21.789062 C 13.375 21.480469 13.464844 21.199219 13.464844 20.996094 C 13.464844 20.167969 12.808594 19.5 12 19.5 C 11.191406 19.5 10.535156 20.167969 10.535156 20.996094 C 10.535156 21.199219 10.625 21.480469 10.753906 21.789062 C 10.558594 21.519531 10.363281 21.300781 10.195312 21.203125 C 9.496094 20.785156 8.597656 21.03125 8.195312 21.75 C 7.792969 22.46875 8.03125 23.382812 8.730469 23.796875 C 8.902344 23.898438 9.179688 23.960938 9.503906 24 C 9.179688 24.039062 8.902344 24.101562 8.730469 24.199219 C 8.03125 24.613281 7.792969 25.53125 8.195312 26.25 C 8.597656 26.96875 9.496094 27.214844 10.195312 26.796875 C 10.363281 26.699219 10.558594 26.480469 10.753906 26.210938 C 10.625 26.519531 10.535156 26.800781 10.535156 27 C 10.535156 27.832031 11.191406 28.5 12 28.5 C 12.808594 28.5 13.464844 27.832031 13.464844 27 C 13.464844 26.800781 13.375 26.519531 13.246094 26.210938 C 13.441406 26.480469 13.636719 26.699219 13.804688 26.796875 C 14.503906 27.214844 15.398438 26.96875 15.804688 26.25 C 16.207031 25.53125 15.96875 24.613281 15.265625 24.199219 Z M 15.265625 24.199219 "/>
<path style=" stroke:none;fill-rule:nonzero;fill:url(#linear4);" d="M 13.5 24.054688 C 13.5 24.882812 12.828125 25.554688 12 25.554688 C 11.171875 25.554688 10.5 24.882812 10.5 24.054688 C 10.5 23.226562 11.171875 22.554688 12 22.554688 C 12.828125 22.554688 13.5 23.226562 13.5 24.054688 "/>
<path style=" stroke:none;fill-rule:nonzero;fill:url(#linear5);" d="M 8 32 L 16 32 C 17.105469 32 18 32.894531 18 34 L 18 42 C 18 43.105469 17.105469 44 16 44 L 8 44 C 6.894531 44 6 43.105469 6 42 L 6 34 C 6 32.894531 6.894531 32 8 32 Z M 8 32 "/>
<path style=" stroke:none;fill-rule:nonzero;fill:url(#radial0);" d="M 15.492188 39.453125 C 15.402344 39.109375 15.5 38.738281 15.753906 38.488281 L 16.242188 37.996094 L 15.753906 37.507812 C 15.5 37.253906 15.402344 36.886719 15.492188 36.539062 L 15.671875 35.875 L 15.003906 35.695312 C 14.65625 35.605469 14.386719 35.335938 14.296875 34.988281 L 14.117188 34.324219 L 13.453125 34.503906 C 13.109375 34.59375 12.742188 34.496094 12.488281 34.242188 L 12 33.753906 L 11.511719 34.242188 C 11.257812 34.496094 10.890625 34.59375 10.546875 34.503906 L 9.878906 34.324219 L 9.699219 34.992188 C 9.605469 35.335938 9.335938 35.605469 8.992188 35.699219 L 8.324219 35.878906 L 8.503906 36.546875 C 8.59375 36.890625 8.496094 37.257812 8.242188 37.511719 L 7.757812 37.996094 L 8.242188 38.484375 C 8.496094 38.738281 8.59375 39.105469 8.503906 39.449219 L 8.324219 40.117188 L 8.988281 40.296875 C 9.335938 40.390625 9.605469 40.660156 9.695312 41.003906 L 9.875 41.671875 L 10.546875 41.492188 C 10.890625 41.402344 11.257812 41.5 11.511719 41.753906 L 12 42.238281 L 12.488281 41.75 C 12.742188 41.496094 13.109375 41.398438 13.453125 41.492188 L 14.121094 41.671875 L 14.296875 41.003906 C 14.390625 40.660156 14.660156 40.390625 15.003906 40.296875 L 15.671875 40.117188 Z M 15.492188 39.453125 "/>
<path style=" stroke:none;fill-rule:nonzero;fill:url(#linear6);" d="M 9 38 C 9 39.65625 10.34375 41 12 41 C 13.65625 41 15 39.65625 15 38 C 15 36.34375 13.65625 35 12 35 C 10.34375 35 9 36.34375 9 38 "/>
<path style=" stroke:none;fill-rule:nonzero;fill:url(#linear7);" d="M 23 22 L 41 22 C 41.550781 22 42 22.449219 42 23 L 42 25 C 42 25.550781 41.550781 26 41 26 L 23 26 C 22.449219 26 22 25.550781 22 25 L 22 23 C 22 22.449219 22.449219 22 23 22 Z M 23 22 "/>
<path style=" stroke:none;fill-rule:nonzero;fill:url(#linear8);" d="M 23 36 L 41 36 C 41.550781 36 42 36.449219 42 37 L 42 39 C 42 39.550781 41.550781 40 41 40 L 23 40 C 22.449219 40 22 39.550781 22 39 L 22 37 C 22 36.449219 22.449219 36 23 36 Z M 23 36 "/>
<path style=" stroke:none;fill-rule:nonzero;fill:url(#linear9);" d="M 23 8 L 41 8 C 41.550781 8 42 8.449219 42 9 L 42 11 C 42 11.550781 41.550781 12 41 12 L 23 12 C 22.449219 12 22 11.550781 22 11 L 22 9 C 22 8.449219 22.449219 8 23 8 Z M 23 8 "/>
</g>
</svg>

<svg xmlns="http://www.w3.org/2000/svg"  viewBox="0 0 48 48" width="48px" height="48px"><linearGradient id="kYIrYYSrPKf1oIjh~chOga" x1="10.891" x2="13.109" y1="3.459" y2="16.041" gradientUnits="userSpaceOnUse"><stop offset="0" stop-color="#ad3f16"/><stop offset=".492" stop-color="#b85515"/><stop offset="1" stop-color="#c26715"/></linearGradient><path fill="url(#kYIrYYSrPKf1oIjh~chOga)" d="M8,4h8c1.105,0,2,0.895,2,2v7.5c0,1.105-0.895,2-2,2H8c-1.105,0-2-0.895-2-2V6 C6,4.895,6.895,4,8,4z"/><path fill="#fff9c4" d="M13.001,7.5c0,0.829,0.671,1.5,1.499,1.5C15.329,9,16,8.329,16,7.5S15.329,6,14.5,6 C13.672,6,13.001,6.671,13.001,7.5"/><linearGradient id="kYIrYYSrPKf1oIjh~chOgb" x1="14.75" x2="14.75" y1="5.382" y2="15.77" gradientUnits="userSpaceOnUse"><stop offset="0" stop-color="#ffd747"/><stop offset=".482" stop-color="#ffd645"/><stop offset="1" stop-color="#f5bc00"/></linearGradient><path fill="url(#kYIrYYSrPKf1oIjh~chOgb)" d="M18,13.1V14c0,0.14-0.01,0.27-0.04,0.4c-0.11,0.54-0.44,1-0.89,1.27 C16.76,15.88,16.39,16,16,16h-4.5v-1.61l1.95-1.84l1.34-1.28c0.4-0.37,1.02-0.36,1.4,0.02L18,13.1z"/><linearGradient id="kYIrYYSrPKf1oIjh~chOgc" x1="11.37" x2="11.37" y1="8.395" y2="22.862" gradientUnits="userSpaceOnUse"><stop offset="0" stop-color="#fed100"/><stop offset="1" stop-color="#e36001"/></linearGradient><path fill="url(#kYIrYYSrPKf1oIjh~chOgc)" d="M16.74,15.84C16.51,15.95,16.26,16,16,16H8c-0.98,0-1.8-0.71-1.97-1.65 C6.01,14.24,6,14.12,6,14v-2.08l2.79-2.65c0.4-0.37,1.02-0.36,1.4,0.02L16.74,15.84z"/><linearGradient id="kYIrYYSrPKf1oIjh~chOgd" x1="8.268" x2="15.732" y1="17.536" y2="30.464" gradientUnits="userSpaceOnUse"><stop offset="0" stop-color="#21ad64"/><stop offset="1" stop-color="#088242"/></linearGradient><path fill="url(#kYIrYYSrPKf1oIjh~chOgd)" d="M8,18h8c1.105,0,2,0.895,2,2v8c0,1.105-0.895,2-2,2H8c-1.105,0-2-0.895-2-2v-8 C6,18.895,6.895,18,8,18z"/><path fill="#fff" d="M15.267,24.2c-0.169-0.1-0.447-0.162-0.771-0.201c0.324-0.039,0.602-0.101,0.771-0.201 c0.701-0.415,0.94-1.329,0.537-2.049c-0.404-0.719-1.299-0.964-2-0.547c-0.17,0.1-0.363,0.319-0.558,0.588 c0.13-0.309,0.218-0.59,0.218-0.792c0-0.829-0.655-1.498-1.464-1.498s-1.464,0.669-1.464,1.498c0,0.202,0.088,0.483,0.218,0.792 c-0.195-0.269-0.389-0.488-0.558-0.588c-0.701-0.417-1.597-0.172-2,0.547c-0.403,0.72-0.164,1.634,0.536,2.049 c0.169,0.1,0.448,0.162,0.771,0.201C9.18,24.038,8.901,24.1,8.732,24.2c-0.7,0.415-0.939,1.331-0.536,2.049 c0.403,0.72,1.299,0.964,2,0.549c0.169-0.1,0.362-0.318,0.557-0.586c-0.129,0.307-0.217,0.588-0.217,0.788 c0,0.831,0.655,1.5,1.464,1.5s1.464-0.669,1.464-1.5c0-0.201-0.088-0.481-0.217-0.788c0.195,0.268,0.388,0.486,0.557,0.586 c0.701,0.415,1.596,0.171,2-0.549C16.207,25.531,15.968,24.615,15.267,24.2z"/><linearGradient id="kYIrYYSrPKf1oIjh~chOge" x1="6.772" x2="22.041" y1="18.827" y2="34.096" gradientUnits="userSpaceOnUse"><stop offset="0" stop-color="#fed100"/><stop offset="1" stop-color="#e36001"/></linearGradient><path fill="url(#kYIrYYSrPKf1oIjh~chOge)" d="M13.5,24.055c0,0.828-0.671,1.499-1.5,1.499s-1.5-0.671-1.5-1.499 c0-0.83,0.671-1.501,1.5-1.501S13.5,23.225,13.5,24.055"/><g><linearGradient id="kYIrYYSrPKf1oIjh~chOgf" x1="10.848" x2="13.152" y1="31.467" y2="44.533" gradientUnits="userSpaceOnUse"><stop offset="0" stop-color="#3079d6"/><stop offset="1" stop-color="#297cd2"/></linearGradient><path fill="url(#kYIrYYSrPKf1oIjh~chOgf)" d="M8,32h8c1.105,0,2,0.895,2,2v8c0,1.105-0.895,2-2,2H8c-1.105,0-2-0.895-2-2v-8 C6,32.895,6.895,32,8,32z"/><radialGradient id="kYIrYYSrPKf1oIjh~chOgg" cx="12" cy="37.997" r="4.242" gradientUnits="userSpaceOnUse"><stop offset=".611" stop-color="#ffed54"/><stop offset=".825" stop-color="#ffd22d"/><stop offset="1" stop-color="#ffb300"/></radialGradient><path fill="url(#kYIrYYSrPKf1oIjh~chOgg)" d="M15.493,39.453c-0.092-0.345,0.006-0.713,0.259-0.966l0.491-0.491l-0.49-0.49 c-0.253-0.253-0.351-0.621-0.259-0.966l0.178-0.665l-0.669-0.179c-0.345-0.092-0.615-0.362-0.707-0.707l-0.178-0.665l-0.663,0.178 c-0.345,0.092-0.713-0.006-0.966-0.259L12,33.755l-0.489,0.489c-0.253,0.253-0.621,0.351-0.966,0.259l-0.668-0.179l-0.179,0.668 c-0.092,0.345-0.362,0.615-0.707,0.707l-0.668,0.179l0.179,0.668c0.092,0.345-0.006,0.713-0.259,0.966l-0.486,0.486l0.487,0.487 c0.253,0.253,0.351,0.621,0.259,0.966l-0.179,0.668l0.666,0.178c0.345,0.092,0.615,0.362,0.707,0.707l0.179,0.668l0.67-0.179 c0.345-0.092,0.713,0.006,0.966,0.259L12,42.239l0.488-0.488c0.253-0.253,0.621-0.351,0.966-0.259l0.666,0.178l0.178-0.666 c0.092-0.345,0.362-0.615,0.707-0.707l0.666-0.179L15.493,39.453z"/><linearGradient id="kYIrYYSrPKf1oIjh~chOgh" x1="8.801" x2="14.66" y1="34.801" y2="40.66" gradientUnits="userSpaceOnUse"><stop offset="0" stop-color="#fed100"/><stop offset="1" stop-color="#e36001"/></linearGradient><path fill="url(#kYIrYYSrPKf1oIjh~chOgh)" d="M9,38c0,1.656,1.344,3,3,3c1.657,0,3-1.344,3-3s-1.343-3-3-3C10.344,35,9,36.344,9,38"/></g><linearGradient id="kYIrYYSrPKf1oIjh~chOgi" x1="32" x2="32" y1="22" y2="26" gradientUnits="userSpaceOnUse"><stop offset="0" stop-color="#28afea"/><stop offset="1" stop-color="#0b88da"/></linearGradient><path fill="url(#kYIrYYSrPKf1oIjh~chOgi)" d="M23,22h18c0.552,0,1,0.448,1,1v2c0,0.552-0.448,1-1,1H23c-0.552,0-1-0.448-1-1v-2 C22,22.448,22.448,22,23,22z"/><linearGradient id="kYIrYYSrPKf1oIjh~chOgj" x1="32" x2="32" y1="36" y2="40" gradientUnits="userSpaceOnUse"><stop offset="0" stop-color="#28afea"/><stop offset="1" stop-color="#0b88da"/></linearGradient><path fill="url(#kYIrYYSrPKf1oIjh~chOgj)" d="M23,36h18c0.552,0,1,0.448,1,1v2c0,0.552-0.448,1-1,1H23c-0.552,0-1-0.448-1-1v-2 C22,36.448,22.448,36,23,36z"/><linearGradient id="kYIrYYSrPKf1oIjh~chOgk" x1="32" x2="32" y1="8" y2="12" gradientUnits="userSpaceOnUse"><stop offset="0" stop-color="#28afea"/><stop offset="1" stop-color="#0b88da"/></linearGradient><path fill="url(#kYIrYYSrPKf1oIjh~chOgk)" d="M23,8h18c0.552,0,1,0.448,1,1v2c0,0.552-0.448,1-1,1H23c-0.552,0-1-0.448-1-1V9 C22,8.448,22.448,8,23,8z"/></svg>
